X:19284
T:¡Ai! Pachín (CT 298)
T:¡Ai! Pinín (CT 298)
T:D'equí a Somió (CT 298)
R:Fandangu
C:Tradicional
S:Música Tradicional Asturiana, (C) Tello & Tito. Asturies, 2001.
S:http://pagina.de/MusTradAst <telloytito@asturies.org>
N:Canción de empleo indeterminado, transcrita en Llangréu.
N:Se canta generalmente con acompañamiento de gaita.
O:Llangréu
A:Asturies
Z:Cancioneru de Torner 298
M:6/8
L:1/8
Q:3/8=80
W:¡Ai! Pinín, cásate conmigo,
W:que mio padre va dame buen dote,
W:que yo tengo  munches faciendes:
W:toes les tengo nel cocorote.
W:D'equí a Somió too ye de mio;
W:de Somio allá too ye de mio pa.
W:Mira qué suerte vas tener
W:cuandu me lleves a min por muyer.
W:
W:Tengo una bona casería
W:mesmamente metá de Perlora,
W:con unes cuantes tierriquines,
W:que les tengo, Pinín, de memoria.
W:Tengo un güertín, tengo un güertín,
W:que tol añu me da perexil,
W:y un manzanal, y un manzanal
W:que les manzanes me valen a rial.
W:
W:En casándome mio pa dame
W:una cama que ye de madera
W:y solo-y falten los llargueros
W:y dos pates cola cabecera.
W:Tamién me da bon colchoncín
W:que nun tien llana, nin fueya, nin crin,
W:y pa con él un cabezal
W:fechu de paya robá nun payar.
W:
W:De maíz, fabes y patates,
W:cueyo al añu dos mil celaminos,
W:pero toos los cueyo n'andecha
W:cuandu me llamen los mios vecinos.
W:Y en la cubil tengo tamién
W:una marrana que cien años tien;
W:tengo un gochín, tengo un gochín,
W:pa que-y la cebe, del siñor Pachín.
K:G
G2B|:ddd d2e|e2d e2d|cBA dcB|
A2G G2B|ddd d2e|e2d edc|BAd c2B|
A2G GFG|A3 GFG|A3 ABc|ded cBA|
d3 GFG|A2A GFG|A3 ABc|ded cBA|[1 G2 z G2B:|[2 G2||


